src/assets/line_stroke.svg

<svg width="4" height="50" viewBox="0 0 4 50" fill="none" xmlns="http://www.w3.org/2000/svg">
<path d="M3.00572 5.41711C3.07756 5.97103 2.88895 6.46686 2.58873 6.86712L2.31138 7.2366L2.18834 7.40017L2.30259 7.55701L2.56919 7.92649C2.85577 8.3227 3.00739 8.80722 2.90806 9.32166L2.85044 9.54296L2.7274 9.91244L2.60533 10.2819C2.54028 10.4779 2.49342 10.6707 2.4647 10.8602L2.35337 11.5992C2.31709 11.8387 2.28297 12.0784 2.25181 12.3179L2.15611 13.0569C2.13668 13.2062 2.13892 13.3551 2.1649 13.5062L2.29185 14.2452C2.34688 14.5652 2.36519 14.8874 2.34459 15.2102L2.32017 15.5797L2.29673 15.9492C2.28374 16.1524 2.28458 16.3559 2.29869 16.5592L2.34947 17.2982C2.36716 17.5531 2.38161 17.8082 2.39244 18.0631L2.42369 18.8021C2.43307 19.023 2.45155 19.2446 2.47837 19.466L2.56822 20.2049C2.61837 20.6194 2.56036 21.026 2.41099 21.4115L2.12388 22.1505C2.06435 22.3041 2.03658 22.4461 2.03111 22.5787L2.01548 22.9481L2.00083 23.3176C2.00124 23.3199 2.00242 23.3243 2.00474 23.3311C2.01066 23.3483 2.02623 23.3853 2.06724 23.4417L2.33677 23.8112L2.60533 24.1807C2.87513 24.5514 3.03937 25.0018 2.99009 25.4931L2.95494 25.7067L2.87291 26.0762L2.7899 26.4457C2.71296 26.789 2.58358 27.1203 2.41099 27.4377L2.20982 27.8072L2.05748 28.0881L2.20396 28.3652L2.3983 28.7347L2.48423 28.9214C2.63641 29.2987 2.66309 29.7029 2.54771 30.101L2.47837 30.2992L2.32603 30.6687L2.17955 31.0228L2.50279 31.7502L2.57701 31.9446C2.70259 32.3354 2.69179 32.7386 2.55162 33.1213L2.47154 33.3109L2.29087 33.6804L2.1356 33.996L2.28599 34.3116L2.46275 34.681C2.66565 35.1059 2.70941 35.5648 2.57994 36.0127L2.51353 36.2042L2.36412 36.5737L2.21568 36.9431C2.20615 36.9667 2.20501 36.9777 2.20494 36.9797C2.20489 36.9809 2.20446 36.9833 2.20494 36.9864C2.20544 36.9897 2.20748 36.9958 2.2108 37.0057L2.4608 37.7446C2.62431 38.2281 2.59504 38.7238 2.39439 39.1841L2.07212 39.923C2.01684 40.0498 1.99928 40.155 2.00181 40.2463L2.01255 40.6158L2.02232 40.9853C2.02557 41.1026 2.05168 41.2313 2.11216 41.3759L2.26646 41.7454L2.42173 42.1149C2.56786 42.4644 2.65081 42.8305 2.65904 43.2079L2.67466 43.9469C2.67845 44.1209 2.70218 44.2972 2.74595 44.4771L2.92564 45.216C3.04856 45.721 2.96096 46.2133 2.72544 46.6487L2.52622 47.0182L2.36802 47.3088L2.6981 47.9631C2.7812 48.1279 2.87201 48.3423 2.90415 48.5789C2.93641 48.8163 2.92476 49.232 2.59263 49.5747L2.47349 49.6979L2.38755 49.7864L2.28208 49.8518L2.0438 50L1.57408 49.2639L0.511576 49.2639L0.511576 48.6212L0.728373 48.4865L0.72056 48.4711L0.535013 48.1016C0.264625 47.5653 0.278937 46.9823 0.561381 46.4601L0.7606 46.0906L0.960795 45.7212C0.970267 45.7036 0.975726 45.6912 0.978373 45.6836C0.979689 45.6798 0.979917 45.6766 0.980326 45.675L0.800639 44.937C0.724495 44.6242 0.68258 44.3078 0.675639 43.9892L0.667826 43.6197L0.659037 43.2503C0.656529 43.1351 0.631933 43.0084 0.572123 42.8654L0.263529 42.1264C0.118027 41.7785 0.0337076 41.4145 0.023295 41.0392L0.0135294 40.6697L0.00278726 40.3002C-0.00833673 39.899 0.0748031 39.5113 0.234233 39.1456L0.556498 38.4066C0.562101 38.3938 0.564374 38.3854 0.565287 38.3816C0.56559 38.3804 0.565178 38.3793 0.565287 38.3787C0.564913 38.3769 0.565057 38.3733 0.563334 38.3681L0.313334 37.6292C0.153727 37.1572 0.172423 36.6711 0.35728 36.2138L0.506694 35.8443L0.644389 35.5018L0.299663 34.7811C0.0532657 34.265 0.0581399 33.7077 0.308452 33.1954L0.650249 32.493L0.342631 31.8002C0.126589 31.3134 0.116502 30.7909 0.321147 30.2954L0.473491 29.9259L0.60435 29.6074L0.428569 29.2735L0.233257 28.9041C-0.0496486 28.3667 -0.0424991 27.7757 0.245952 27.2453L0.648296 26.5063C0.74343 26.3313 0.803381 26.1695 0.836772 26.0204L0.91978 25.6509L0.988139 25.3411C0.985767 25.3376 0.983312 25.3337 0.980327 25.3295L0.710796 24.9601L0.442241 24.5906C0.163638 24.2078 -0.0193306 23.7492 0.00181144 23.2368L0.0174365 22.8673L0.0320849 22.4978C0.0469759 22.138 0.124441 21.7869 0.255718 21.4481L0.399272 21.0786L0.541851 20.7091C0.583268 20.6023 0.591328 20.5157 0.58189 20.4378L0.492046 19.6988C0.459213 19.4278 0.437175 19.1564 0.42564 18.8848L0.39439 18.1459C0.384301 17.9083 0.37084 17.6705 0.354351 17.4329L0.30357 16.6939C0.283502 16.4048 0.282171 16.1153 0.30064 15.826L0.324077 15.4566L0.348491 15.0871C0.359337 14.9174 0.349821 14.7467 0.320171 14.5742L0.193218 13.8353C0.134518 13.4938 0.127111 13.1499 0.171734 12.8067L0.219585 12.4372L0.268413 12.0677C0.301326 11.8147 0.336541 11.5615 0.374859 11.3086L0.430523 10.9391L0.487164 10.5696C0.533056 10.2666 0.605534 9.96653 0.70396 9.66997L0.827007 9.30049L0.914898 9.033L0.406109 8.33061C0.222449 8.07661 0.084794 7.75319 0.0897028 7.37708C0.0947115 7.00198 0.2404 6.68241 0.426617 6.43414L0.702984 6.06466L0.980328 5.69518C1.00216 5.66606 1.01183 5.64501 1.01744 5.6336L0.974468 5.2978L0.926617 4.92832C0.91062 4.80497 0.868573 4.66605 0.787945 4.5088L0.409039 3.76984C0.166328 3.29655 0.118049 2.76871 0.3065 2.25248L0.576031 1.51352C0.590704 1.47284 0.628232 1.29395 0.586773 0.886173L0.511578 0.148177L0.511578 -1.0969e-07L2.51158 -2.22674e-08L2.51158 0.0481093L2.57701 0.689887C2.62891 1.20039 2.62313 1.72856 2.45787 2.18128L2.19908 2.89041L2.5731 3.61974C2.74505 3.95505 2.86211 4.30894 2.91002 4.67815L3.00572 5.41711Z" fill="#666666"/>
</svg>

<svg xmlns="http://www.w3.org/2000/svg" width="4" height="50" fill="none" viewBox="0 0 4 50"><path fill="#666" d="M3.006 5.417c.072.554-.117 1.05-.417 1.45l-.278.37-.123.163.115.157.266.37c.287.396.438.88.34 1.395l-.059.221-.123.37-.122.369a3.5 3.5 0 0 0-.14.578l-.112.74q-.054.358-.101.718l-.096.739q-.03.223.009.45l.127.738q.083.48.053.965l-.025.37-.023.37q-.02.303.002.61l.05.738q.027.383.043.765l.032.74q.015.33.054.663l.09.739c.05.414-.008.821-.157 1.207l-.287.739c-.06.153-.087.295-.093.428l-.016.37-.014.369.004.013a.4.4 0 0 0 .062.11l.27.37.268.37c.27.37.434.82.385 1.312l-.035.214-.082.37-.083.369a3.8 3.8 0 0 1-.379.992l-.201.37-.153.28.147.277.194.37.086.186c.152.378.18.782.064 1.18l-.07.198-.152.37-.146.354.323.727.074.195c.126.39.115.794-.025 1.176l-.08.19-.181.37-.155.315.15.316.177.369c.203.425.246.884.117 1.332l-.066.191-.15.37-.148.37a.1.1 0 0 0-.011.036v.006q0 .005.006.02l.25.739c.163.483.134.979-.067 1.44l-.322.738a.75.75 0 0 0-.07.323l.01.37.01.37c.004.117.03.245.09.39l.154.37.156.369c.146.35.229.715.237 1.093l.016.739q.005.26.071.53l.18.739c.123.505.035.997-.2 1.433l-.2.37-.158.29.33.654c.083.165.174.38.206.616.032.237.02.653-.311.996l-.12.123-.085.088-.106.066-.238.148-.47-.736H.512v-.643l.216-.135-.007-.015-.186-.37a1.73 1.73 0 0 1 .026-1.64l.2-.37.2-.37.017-.037q.002-.006.002-.009l-.18-.738a4.4 4.4 0 0 1-.124-.948l-.008-.37-.009-.369a1 1 0 0 0-.087-.385l-.308-.739a3 3 0 0 1-.24-1.087l-.01-.37-.011-.369a2.7 2.7 0 0 1 .231-1.154l.322-.74.01-.024v-.003q0-.004-.003-.01l-.25-.74c-.16-.472-.14-.958.044-1.415l.15-.37.137-.342-.344-.72a1.78 1.78 0 0 1 .008-1.587l.342-.702-.307-.693a1.87 1.87 0 0 1-.022-1.505l.152-.37.131-.318-.175-.334-.196-.369a1.71 1.71 0 0 1 .013-1.659l.402-.739a1.9 1.9 0 0 0 .189-.486l.083-.37.068-.309-.008-.012-.27-.369-.268-.37c-.278-.382-.461-.84-.44-1.353l.015-.37.015-.37q.024-.54.224-1.049l.143-.37.143-.369a.55.55 0 0 0 .04-.271l-.09-.74a11 11 0 0 1-.066-.813l-.032-.74q-.015-.355-.04-.712l-.05-.74a7 7 0 0 1-.003-.867l.023-.37.024-.369q.017-.254-.028-.513l-.127-.739a3.4 3.4 0 0 1-.021-1.028l.048-.37.048-.37q.05-.378.107-.758l.056-.37.056-.37q.07-.453.217-.899l.123-.37.088-.267-.509-.702a1.6 1.6 0 0 1-.316-.954c.005-.375.15-.695.337-.943l.276-.37.277-.369q.031-.044.037-.061l-.043-.336-.047-.37a1.3 1.3 0 0 0-.14-.42L.41 3.77a1.86 1.86 0 0 1-.102-1.518l.269-.738c.015-.041.052-.22.01-.628L.513.148V0h2v.048l.065.642c.052.51.046 1.039-.12 1.491l-.258.71.374.729c.172.335.29.689.337 1.058z"/></svg>
